icons/modern/kissing-face-with-smiling-eyes.svg

<svg width="32" height="32" viewBox="0 0 32 32" fill="none" xmlns="http://www.w3.org/2000/svg">
<path d="M15.9989 29.9978C25.3333 29.9978 29.9978 23.7303 29.9978 15.9989C29.9978 8.26751 25.3333 2 15.9989 2C6.66443 2 2 8.26751 2 15.9989C2 23.7303 6.66443 29.9978 15.9989 29.9978Z" fill="url(#paint0_radial_23_486)"/>
<path d="M15.9989 29.9978C25.3333 29.9978 29.9978 23.7303 29.9978 15.9989C29.9978 8.26751 25.3333 2 15.9989 2C6.66443 2 2 8.26751 2 15.9989C2 23.7303 6.66443 29.9978 15.9989 29.9978Z" fill="url(#paint1_radial_23_486)"/>
<path d="M15.9989 29.9978C25.3333 29.9978 29.9978 23.7303 29.9978 15.9989C29.9978 8.26751 25.3333 2 15.9989 2C6.66443 2 2 8.26751 2 15.9989C2 23.7303 6.66443 29.9978 15.9989 29.9978Z" fill="url(#paint2_radial_23_486)"/>
<path d="M15.9989 29.9978C25.3333 29.9978 29.9978 23.7303 29.9978 15.9989C29.9978 8.26751 25.3333 2 15.9989 2C6.66443 2 2 8.26751 2 15.9989C2 23.7303 6.66443 29.9978 15.9989 29.9978Z" fill="url(#paint3_radial_23_486)" fill-opacity="0.6"/>
<path d="M15.9989 29.9978C25.3333 29.9978 29.9978 23.7303 29.9978 15.9989C29.9978 8.26751 25.3333 2 15.9989 2C6.66443 2 2 8.26751 2 15.9989C2 23.7303 6.66443 29.9978 15.9989 29.9978Z" fill="url(#paint4_radial_23_486)"/>
<path d="M15.9989 29.9978C25.3333 29.9978 29.9978 23.7303 29.9978 15.9989C29.9978 8.26751 25.3333 2 15.9989 2C6.66443 2 2 8.26751 2 15.9989C2 23.7303 6.66443 29.9978 15.9989 29.9978Z" fill="url(#paint5_radial_23_486)"/>
<path d="M15.9989 29.9978C25.3333 29.9978 29.9978 23.7303 29.9978 15.9989C29.9978 8.26751 25.3333 2 15.9989 2C6.66443 2 2 8.26751 2 15.9989C2 23.7303 6.66443 29.9978 15.9989 29.9978Z" fill="url(#paint6_radial_23_486)"/>
<path d="M15.9989 29.9978C25.3333 29.9978 29.9978 23.7303 29.9978 15.9989C29.9978 8.26751 25.3333 2 15.9989 2C6.66443 2 2 8.26751 2 15.9989C2 23.7303 6.66443 29.9978 15.9989 29.9978Z" fill="url(#paint7_radial_23_486)"/>
<path d="M8 13C8 13 8.74211 12 10.5 12C12.2579 12 13 13 13 13" stroke="url(#paint8_linear_23_486)" stroke-width="2" stroke-linecap="round" stroke-linejoin="round"/>
<path d="M19 13C19 13 19.7421 12 21.5 12C23.2579 12 24 13 24 13" stroke="url(#paint9_linear_23_486)" stroke-width="2" stroke-linecap="round" stroke-linejoin="round"/>
<mask id="path-4-inside-1_23_486" fill="white">
<path fill-rule="evenodd" clip-rule="evenodd" d="M17.6699 16.9199C17.1176 16.9199 16.6699 17.3676 16.6699 17.9199C16.6699 18.4722 17.1176 18.9199 17.6699 18.9199C17.9576 18.9199 18.1899 19.1522 18.1899 19.4399C18.1899 19.7276 17.9576 19.9599 17.6699 19.9599C17.1176 19.9599 16.6699 20.4076 16.6699 20.9599C16.6699 20.9599 16.6699 20.9599 16.6699 20.96C16.6699 21.5122 17.1176 21.96 17.6699 21.96C17.9576 21.96 18.1899 22.1922 18.1899 22.48C18.1899 22.7677 17.9576 23 17.6699 23C17.1176 23 16.6699 23.4477 16.6699 24C16.6699 24.5522 17.1176 25 17.6699 25C19.0622 25 20.1899 23.8722 20.1899 22.48C20.1899 21.9089 20.0002 21.3824 19.6804 20.9599C20.0002 20.5375 20.1899 20.0109 20.1899 19.4399C20.1899 18.0476 19.0622 16.9199 17.6699 16.9199Z"/>
</mask>
<path fill-rule="evenodd" clip-rule="evenodd" d="M17.6699 16.9199C17.1176 16.9199 16.6699 17.3676 16.6699 17.9199C16.6699 18.4722 17.1176 18.9199 17.6699 18.9199C17.9576 18.9199 18.1899 19.1522 18.1899 19.4399C18.1899 19.7276 17.9576 19.9599 17.6699 19.9599C17.1176 19.9599 16.6699 20.4076 16.6699 20.9599C16.6699 20.9599 16.6699 20.9599 16.6699 20.96C16.6699 21.5122 17.1176 21.96 17.6699 21.96C17.9576 21.96 18.1899 22.1922 18.1899 22.48C18.1899 22.7677 17.9576 23 17.6699 23C17.1176 23 16.6699 23.4477 16.6699 24C16.6699 24.5522 17.1176 25 17.6699 25C19.0622 25 20.1899 23.8722 20.1899 22.48C20.1899 21.9089 20.0002 21.3824 19.6804 20.9599C20.0002 20.5375 20.1899 20.0109 20.1899 19.4399C20.1899 18.0476 19.0622 16.9199 17.6699 16.9199Z" fill="url(#paint10_radial_23_486)"/>
<path d="M19.6804 20.9599L19.2817 20.6581L19.0533 20.9599L19.2817 21.2617L19.6804 20.9599ZM17.1699 17.9199C17.1699 17.6438 17.3938 17.4199 17.6699 17.4199V16.4199C16.8415 16.4199 16.1699 17.0915 16.1699 17.9199H17.1699ZM17.6699 18.4199C17.3938 18.4199 17.1699 18.1961 17.1699 17.9199H16.1699C16.1699 18.7483 16.8415 19.4199 17.6699 19.4199V18.4199ZM18.6899 19.4399C18.6899 18.8761 18.2338 18.4199 17.6699 18.4199V19.4199C17.6815 19.4199 17.6899 19.4283 17.6899 19.4399H18.6899ZM17.6699 20.4599C18.2338 20.4599 18.6899 20.0038 18.6899 19.4399H17.6899C17.6899 19.4515 17.6815 19.4599 17.6699 19.4599V20.4599ZM17.1699 20.9599C17.1699 20.6838 17.3938 20.4599 17.6699 20.4599V19.4599C16.8415 19.4599 16.1699 20.1315 16.1699 20.9599H17.1699ZM17.1699 20.96C17.1699 20.96 17.1699 20.96 17.1699 20.96C17.1699 20.96 17.1699 20.96 17.1699 20.96C17.1699 20.96 17.1699 20.96 17.1699 20.96C17.1699 20.96 17.1699 20.96 17.1699 20.96V20.96V20.96V20.96C17.1699 20.96 17.1699 20.96 17.1699 20.96C17.1699 20.96 17.1699 20.96 17.1699 20.96C17.1699 20.96 17.1699 20.96 17.1699 20.96C17.1699 20.96 17.1699 20.96 17.1699 20.96C17.1699 20.96 17.1699 20.96 17.1699 20.96C17.1699 20.96 17.1699 20.96 17.1699 20.96C17.1699 20.96 17.1699 20.96 17.1699 20.96V20.96V20.96V20.96V20.96C17.1699 20.96 17.1699 20.96 17.1699 20.96C17.1699 20.96 17.1699 20.96 17.1699 20.96C17.1699 20.96 17.1699 20.96 17.1699 20.96C17.1699 20.96 17.1699 20.96 17.1699 20.96C17.1699 20.9599 17.1699 20.9599 17.1699 20.9599C17.1699 20.9599 17.1699 20.9599 17.1699 20.9599V20.9599V20.9599V20.9599V20.9599C17.1699 20.9599 17.1699 20.9599 17.1699 20.9599C17.1699 20.9599 17.1699 20.9599 17.1699 20.9599C17.1699 20.9599 17.1699 20.9599 17.1699 20.9599C17.1699 20.9599 17.1699 20.9599 17.1699 20.9599C17.1699 20.9599 17.1699 20.9599 17.1699 20.9599C17.1699 20.9599 17.1699 20.9599 17.1699 20.9599C17.1699 20.9599 17.1699 20.9599 17.1699 20.9599V20.9599V20.9599V20.9599C17.1699 20.9599 17.1699 20.9599 17.1699 20.9599C17.1699 20.9599 17.1699 20.9599 17.1699 20.9599C17.1699 20.9599 17.1699 20.9599 17.1699 20.9599C17.1699 20.9599 17.1699 20.9599 17.1699 20.9599C17.1699 20.9599 17.1699 20.9599 17.1699 20.9599C17.1699 20.9599 17.1699 20.9599 17.1699 20.9599C17.1699 20.9599 17.1699 20.9599 17.1699 20.9599C17.1699 20.9599 17.1699 20.9599 17.1699 20.9599V20.9599V20.9599V20.9599C17.1699 20.9599 17.1699 20.9599 17.1699 20.9599C17.1699 20.9599 17.1699 20.9599 17.1699 20.9599C17.1699 20.9599 17.1699 20.9599 17.1699 20.9599C17.1699 20.9599 17.1699 20.9599 17.1699 20.9599C17.1699 20.9599 17.1699 20.9599 17.1699 20.9599C17.1699 20.9599 17.1699 20.9599 17.1699 20.9599C17.1699 20.9599 17.1699 20.9599 17.1699 20.9599V20.9599V20.9599V20.9599V20.9599C17.1699 20.9599 17.1699 20.9599 17.1699 20.9599C17.1699 20.9599 17.1699 20.9599 17.1699 20.9599C17.1699 20.9599 17.1699 20.9599 17.1699 20.9599C17.1699 20.9599 17.1699 20.9599 17.1699 20.9599C17.1699 20.9599 17.1699 20.9599 17.1699 20.9599C17.1699 20.9599 17.1699 20.9599 17.1699 20.9599V20.9599V20.9599V20.9599V20.9599C17.1699 20.9599 17.1699 20.9599 17.1699 20.9599C17.1699 20.9599 17.1699 20.9599 17.1699 20.9599C17.1699 20.9599 17.1699 20.9599 17.1699 20.9599C17.1699 20.9599 17.1699 20.9599 17.1699 20.9599C17.1699 20.9599 17.1699 20.9599 17.1699 20.9599C17.1699 20.9599 17.1699 20.9599 17.1699 20.9599C17.1699 20.9599 17.1699 20.9599 17.1699 20.9599V20.9599V20.9599V20.9599C17.1699 20.9599 17.1699 20.9599 17.1699 20.9599C17.1699 20.9599 17.1699 20.9599 17.1699 20.9599C17.1699 20.9599 17.1699 20.9599 17.1699 20.9599C17.1699 20.9599 17.1699 20.9599 17.1699 20.9599H16.1699C16.1699 20.9599 16.1699 20.9599 16.1699 20.9599C16.1699 20.9599 16.1699 20.9599 16.1699 20.9599C16.1699 20.9599 16.1699 20.9599 16.1699 20.9599C16.1699 20.9599 16.1699 20.9599 16.1699 20.9599V20.9599V20.9599V20.9599C16.1699 20.9599 16.1699 20.9599 16.1699 20.9599C16.1699 20.9599 16.1699 20.9599 16.1699 20.9599C16.1699 20.9599 16.1699 20.9599 16.1699 20.9599C16.1699 20.9599 16.1699 20.9599 16.1699 20.9599C16.1699 20.9599 16.1699 20.9599 16.1699 20.9599C16.1699 20.9599 16.1699 20.9599 16.1699 20.9599C16.1699 20.9599 16.1699 20.9599 16.1699 20.9599V20.9599V20.9599V20.9599V20.9599C16.1699 20.9599 16.1699 20.9599 16.1699 20.9599C16.1699 20.9599 16.1699 20.9599 16.1699 20.9599C16.1699 20.9599 16.1699 20.9599 16.1699 20.9599C16.1699 20.9599 16.1699 20.9599 16.1699 20.9599C16.1699 20.9599 16.1699 20.9599 16.1699 20.9599C16.1699 20.9599 16.1699 20.9599 16.1699 20.9599V20.9599V20.9599V20.9599V20.9599C16.1699 20.9599 16.1699 20.9599 16.1699 20.9599C16.1699 20.9599 16.1699 20.9599 16.1699 20.9599C16.1699 20.9599 16.1699 20.9599 16.1699 20.9599C16.1699 20.9599 16.1699 20.9599 16.1699 20.9599C16.1699 20.9599 16.1699 20.9599 16.1699 20.9599C16.1699 20.9599 16.1699 20.9599 16.1699 20.9599C16.1699 20.9599 16.1699 20.9599 16.1699 20.9599V20.9599V20.9599V20.9599C16.1699 20.9599 16.1699 20.9599 16.1699 20.9599C16.1699 20.9599 16.1699 20.9599 16.1699 20.9599C16.1699 20.9599 16.1699 20.9599 16.1699 20.9599C16.1699 20.9599 16.1699 20.9599 16.1699 20.9599C16.1699 20.9599 16.1699 20.9599 16.1699 20.9599C16.1699 20.9599 16.1699 20.9599 16.1699 20.9599C16.1699 20.9599 16.1699 20.9599 16.1699 20.9599C16.1699 20.9599 16.1699 20.9599 16.1699 20.9599V20.9599V20.9599V20.9599C16.1699 20.9599 16.1699 20.9599 16.1699 20.9599C16.1699 20.9599 16.1699 20.9599 16.1699 20.9599C16.1699 20.9599 16.1699 20.9599 16.1699 20.9599C16.1699 20.9599 16.1699 20.9599 16.1699 20.9599C16.1699 20.9599 16.1699 20.9599 16.1699 20.9599C16.1699 20.9599 16.1699 20.9599 16.1699 20.9599C16.1699 20.9599 16.1699 20.9599 16.1699 20.9599V20.9599V20.9599V20.9599V20.9599C16.1699 20.9599 16.1699 20.9599 16.1699 20.9599C16.1699 20.9599 16.1699 20.9599 16.1699 20.96C16.1699 20.96 16.1699 20.96 16.1699 20.96C16.1699 20.96 16.1699 20.96 16.1699 20.96C16.1699 20.96 16.1699 20.96 16.1699 20.96C16.1699 20.96 16.1699 20.96 16.1699 20.96V20.96V20.96V20.96V20.96C16.1699 20.96 16.1699 20.96 16.1699 20.96C16.1699 20.96 16.1699 20.96 16.1699 20.96C16.1699 20.96 16.1699 20.96 16.1699 20.96C16.1699 20.96 16.1699 20.96 16.1699 20.96C16.1699 20.96 16.1699 20.96 16.1699 20.96C16.1699 20.96 16.1699 20.96 16.1699 20.96C16.1699 20.96 16.1699 20.96 16.1699 20.96V20.96V20.96V20.96C16.1699 20.96 16.1699 20.96 16.1699 20.96C16.1699 20.96 16.1699 20.96 16.1699 20.96C16.1699 20.96 16.1699 20.96 16.1699 20.96C16.1699 20.96 16.1699 20.96 16.1699 20.96H17.1699ZM17.6699 21.46C17.3938 21.46 17.1699 21.2361 17.1699 20.96H16.1699C16.1699 21.7884 16.8415 22.46 17.6699 22.46V21.46ZM18.6899 22.48C18.6899 21.9161 18.2338 21.46 17.6699 21.46V22.46C17.6815 22.46 17.6899 22.4684 17.6899 22.48H18.6899ZM17.6699 23.5C18.2338 23.5 18.6899 23.0438 18.6899 22.48H17.6899C17.6899 22.4915 17.6815 22.5 17.6699 22.5V23.5ZM17.1699 24C17.1699 23.7238 17.3938 23.5 17.6699 23.5V22.5C16.8415 22.5 16.1699 23.1715 16.1699 24H17.1699ZM17.6699 24.5C17.3938 24.5 17.1699 24.2761 17.1699 24H16.1699C16.1699 24.8284 16.8415 25.5 17.6699 25.5V24.5ZM19.6899 22.48C19.6899 23.5961 18.7861 24.5 17.6699 24.5V25.5C19.3383 25.5 20.6899 24.1484 20.6899 22.48H19.6899ZM19.2817 21.2617C19.5381 21.6003 19.6899 22.0215 19.6899 22.48H20.6899C20.6899 21.7963 20.4624 21.1645 20.079 20.6581L19.2817 21.2617ZM19.6899 19.4399C19.6899 19.8983 19.5381 20.3196 19.2817 20.6581L20.079 21.2617C20.4624 20.7554 20.6899 20.1236 20.6899 19.4399H19.6899ZM17.6699 17.4199C18.7861 17.4199 19.6899 18.3238 19.6899 19.4399H20.6899C20.6899 17.7715 19.3383 16.4199 17.6699 16.4199V17.4199Z" fill="url(#paint11_linear_23_486)" mask="url(#path-4-inside-1_23_486)"/>
<defs>
<radialGradient id="paint0_radial_23_486" cx="0" cy="0" r="1" gradientUnits="userSpaceOnUse" gradientTransform="translate(25.5 9) rotate(132.839) scale(37.5033)">
<stop stop-color="#FFF478"/>
<stop offset="0.474827" stop-color="#FFB02E"/>
<stop offset="1" stop-color="#F70A8D"/>
</radialGradient>
<radialGradient id="paint1_radial_23_486" cx="0" cy="0" r="1" gradientUnits="userSpaceOnUse" gradientTransform="translate(25.5 9) rotate(131.878) scale(38.9487)">
<stop stop-color="#FFF478"/>
<stop offset="0.474827" stop-color="#FFB02E"/>
<stop offset="1" stop-color="#F70A8D"/>
</radialGradient>
<radialGradient id="paint2_radial_23_486" cx="0" cy="0" r="1" gradientUnits="userSpaceOnUse" gradientTransform="translate(16 12.5) rotate(101.31) scale(17.8466 22.8581)">
<stop offset="0.787821" stop-color="#F59639" stop-opacity="0"/>
<stop offset="0.972509" stop-color="#FF7DCE"/>
</radialGradient>
<radialGradient id="paint3_radial_23_486" cx="0" cy="0" r="1" gradientUnits="userSpaceOnUse" gradientTransform="translate(18 14) rotate(135) scale(41.0122)">
<stop offset="0.314853" stop-opacity="0"/>
<stop offset="1"/>
</radialGradient>
<radialGradient id="paint4_radial_23_486" cx="0" cy="0" r="1" gradientUnits="userSpaceOnUse" gradientTransform="translate(16 17) rotate(77.692) scale(28.1469)">
<stop offset="0.507903" stop-color="#7D6133" stop-opacity="0"/>
<stop offset="1" stop-color="#715B32"/>
</radialGradient>
<radialGradient id="paint5_radial_23_486" cx="0" cy="0" r="1" gradientUnits="userSpaceOnUse" gradientTransform="translate(16.5 16.5) rotate(55.7131) scale(13.3135 9.65032)">
<stop stop-color="#FFB849"/>
<stop offset="1" stop-color="#FFB847" stop-opacity="0"/>
</radialGradient>
<radialGradient id="paint6_radial_23_486" cx="0" cy="0" r="1" gradientUnits="userSpaceOnUse" gradientTransform="translate(20.5 18) rotate(9.86581) scale(11.6726)">
<stop stop-color="#FFA64B"/>
<stop offset="0.900412" stop-color="#FFAE46" stop-opacity="0"/>
</radialGradient>
<radialGradient id="paint7_radial_23_486" cx="0" cy="0" r="1" gradientUnits="userSpaceOnUse" gradientTransform="translate(17.5 15) rotate(43.9708) scale(59.0529)">
<stop offset="0.185425" stop-opacity="0"/>
<stop offset="1" stop-opacity="0.4"/>
</radialGradient>
<linearGradient id="paint8_linear_23_486" x1="11.5" y1="11.5" x2="10.5" y2="14" gradientUnits="userSpaceOnUse">
<stop stop-color="#52383E"/>
<stop offset="1" stop-color="#432A35"/>
</linearGradient>
<linearGradient id="paint9_linear_23_486" x1="22.5" y1="11.5" x2="21.5" y2="14" gradientUnits="userSpaceOnUse">
<stop stop-color="#52383E"/>
<stop offset="1" stop-color="#432A35"/>
</linearGradient>
<radialGradient id="paint10_radial_23_486" cx="0" cy="0" r="1" gradientUnits="userSpaceOnUse" gradientTransform="translate(16.6699 20.9599) scale(6.33008 7.26524)">
<stop stop-color="#3E3537"/>
<stop offset="0.313085" stop-color="#523A4F"/>
<stop offset="0.675586" stop-color="#6A5763"/>
</radialGradient>
<linearGradient id="paint11_linear_23_486" x1="19" y1="20.9999" x2="20.5" y2="20.4999" gradientUnits="userSpaceOnUse">
<stop stop-color="#664F62" stop-opacity="0"/>
<stop offset="1" stop-color="#765D72"/>
</linearGradient>
</defs>
</svg>

<svg width="32" height="32" fill="none" xmlns="http://www.w3.org/2000/svg"><path d="M15.999 29.998c9.334 0 13.999-6.268 13.999-14 0-7.73-4.665-13.998-14-13.998C6.665 2 2 8.268 2 15.999c0 7.731 4.664 13.999 13.999 13.999Z" fill="url(#a)"/><path d="M15.999 29.998c9.334 0 13.999-6.268 13.999-14 0-7.73-4.665-13.998-14-13.998C6.665 2 2 8.268 2 15.999c0 7.731 4.664 13.999 13.999 13.999Z" fill="url(#b)"/><path d="M15.999 29.998c9.334 0 13.999-6.268 13.999-14 0-7.73-4.665-13.998-14-13.998C6.665 2 2 8.268 2 15.999c0 7.731 4.664 13.999 13.999 13.999Z" fill="url(#c)"/><path d="M15.999 29.998c9.334 0 13.999-6.268 13.999-14 0-7.73-4.665-13.998-14-13.998C6.665 2 2 8.268 2 15.999c0 7.731 4.664 13.999 13.999 13.999Z" fill="url(#d)" fill-opacity=".6"/><path d="M15.999 29.998c9.334 0 13.999-6.268 13.999-14 0-7.73-4.665-13.998-14-13.998C6.665 2 2 8.268 2 15.999c0 7.731 4.664 13.999 13.999 13.999Z" fill="url(#e)"/><path d="M15.999 29.998c9.334 0 13.999-6.268 13.999-14 0-7.73-4.665-13.998-14-13.998C6.665 2 2 8.268 2 15.999c0 7.731 4.664 13.999 13.999 13.999Z" fill="url(#f)"/><path d="M15.999 29.998c9.334 0 13.999-6.268 13.999-14 0-7.73-4.665-13.998-14-13.998C6.665 2 2 8.268 2 15.999c0 7.731 4.664 13.999 13.999 13.999Z" fill="url(#g)"/><path d="M15.999 29.998c9.334 0 13.999-6.268 13.999-14 0-7.73-4.665-13.998-14-13.998C6.665 2 2 8.268 2 15.999c0 7.731 4.664 13.999 13.999 13.999Z" fill="url(#h)"/><path d="M8 13s.742-1 2.5-1 2.5 1 2.5 1" stroke="url(#i)" stroke-width="2" stroke-linecap="round" stroke-linejoin="round"/><path d="M19 13s.742-1 2.5-1 2.5 1 2.5 1" stroke="url(#j)" stroke-width="2" stroke-linecap="round" stroke-linejoin="round"/><mask id="m" fill="#fff"><path fill-rule="evenodd" clip-rule="evenodd" d="M17.67 16.92a1 1 0 1 0 0 2 .52.52 0 1 1 0 1.04 1 1 0 0 0 0 2 .52.52 0 1 1 0 1.04 1 1 0 1 0 0 2 2.52 2.52 0 0 0 2.01-4.04 2.52 2.52 0 0 0-2.01-4.04Z"/></mask><path fill-rule="evenodd" clip-rule="evenodd" d="M17.67 16.92a1 1 0 1 0 0 2 .52.52 0 1 1 0 1.04 1 1 0 0 0 0 2 .52.52 0 1 1 0 1.04 1 1 0 1 0 0 2 2.52 2.52 0 0 0 2.01-4.04 2.52 2.52 0 0 0-2.01-4.04Z" fill="url(#k)"/><path d="m19.68 20.96-.398-.302-.229.302.229.302.398-.302Zm-2.51-3.04a.5.5 0 0 1 .5-.5v-1a1.5 1.5 0 0 0-1.5 1.5h1Zm.5.5a.5.5 0 0 1-.5-.5h-1a1.5 1.5 0 0 0 1.5 1.5v-1Zm1.02 1.02a1.02 1.02 0 0 0-1.02-1.02v1a.02.02 0 0 1 .02.02h1Zm-1.02 1.02a1.02 1.02 0 0 0 1.02-1.02h-1a.02.02 0 0 1-.02.02v1Zm-.5.5a.5.5 0 0 1 .5-.5v-1a1.5 1.5 0 0 0-1.5 1.5h1Zm0 0h-1 1Zm.5.5a.5.5 0 0 1-.5-.5h-1a1.5 1.5 0 0 0 1.5 1.5v-1Zm1.02 1.02a1.02 1.02 0 0 0-1.02-1.02v1a.02.02 0 0 1 .02.02h1Zm-1.02 1.02a1.02 1.02 0 0 0 1.02-1.02h-1a.02.02 0 0 1-.02.02v1Zm-.5.5a.5.5 0 0 1 .5-.5v-1a1.5 1.5 0 0 0-1.5 1.5h1Zm.5.5a.5.5 0 0 1-.5-.5h-1a1.5 1.5 0 0 0 1.5 1.5v-1Zm2.02-2.02a2.02 2.02 0 0 1-2.02 2.02v1a3.02 3.02 0 0 0 3.02-3.02h-1Zm-.408-1.218c.256.338.408.76.408 1.218h1a3.01 3.01 0 0 0-.611-1.822l-.797.604Zm.408-1.822c0 .458-.152.88-.408 1.218l.797.604c.383-.507.61-1.138.61-1.822h-1Zm-2.02-2.02a2.02 2.02 0 0 1 2.02 2.02h1a3.02 3.02 0 0 0-3.02-3.02v1Z" fill="url(#l)" mask="url(#m)"/><defs><radialGradient id="a" cx="0" cy="0" r="1" gradientUnits="userSpaceOnUse" gradientTransform="rotate(132.839 10.786 10.065) scale(37.5033)"><stop stop-color="#FFF478"/><stop offset=".475" stop-color="#FFB02E"/><stop offset="1" stop-color="#F70A8D"/></radialGradient><radialGradient id="b" cx="0" cy="0" r="1" gradientUnits="userSpaceOnUse" gradientTransform="rotate(131.878 10.74 10.193) scale(38.9487)"><stop stop-color="#FFF478"/><stop offset=".475" stop-color="#FFB02E"/><stop offset="1" stop-color="#F70A8D"/></radialGradient><radialGradient id="c" cx="0" cy="0" r="1" gradientUnits="userSpaceOnUse" gradientTransform="rotate(101.31 2.876 12.808) scale(17.8466 22.8581)"><stop offset=".788" stop-color="#F59639" stop-opacity="0"/><stop offset=".973" stop-color="#FF7DCE"/></radialGradient><radialGradient id="d" cx="0" cy="0" r="1" gradientUnits="userSpaceOnUse" gradientTransform="matrix(-29 29 -29 -29 18 14)"><stop offset=".315" stop-opacity="0"/><stop offset="1"/></radialGradient><radialGradient id="e" cx="0" cy="0" r="1" gradientUnits="userSpaceOnUse" gradientTransform="rotate(77.692 -2.555 18.434) scale(28.1469)"><stop offset=".508" stop-color="#7D6133" stop-opacity="0"/><stop offset="1" stop-color="#715B32"/></radialGradient><radialGradient id="f" cx="0" cy="0" r="1" gradientUnits="userSpaceOnUse" gradientTransform="rotate(55.713 -7.36 23.86) scale(13.3135 9.65032)"><stop stop-color="#FFB849"/><stop offset="1" stop-color="#FFB847" stop-opacity="0"/></radialGradient><radialGradient id="g" cx="0" cy="0" r="1" gradientUnits="userSpaceOnUse" gradientTransform="matrix(11.49998 2 -2 11.49998 20.5 18)"><stop stop-color="#FFA64B"/><stop offset=".9" stop-color="#FFAE46" stop-opacity="0"/></radialGradient><radialGradient id="h" cx="0" cy="0" r="1" gradientUnits="userSpaceOnUse" gradientTransform="rotate(43.971 -9.827 29.173) scale(59.0529)"><stop offset=".185" stop-opacity="0"/><stop offset="1" stop-opacity=".4"/></radialGradient><radialGradient id="k" cx="0" cy="0" r="1" gradientUnits="userSpaceOnUse" gradientTransform="matrix(6.33008 0 0 7.26524 16.67 20.96)"><stop stop-color="#3E3537"/><stop offset=".313" stop-color="#523A4F"/><stop offset=".676" stop-color="#6A5763"/></radialGradient><linearGradient id="i" x1="11.5" y1="11.5" x2="10.5" y2="14" gradientUnits="userSpaceOnUse"><stop stop-color="#52383E"/><stop offset="1" stop-color="#432A35"/></linearGradient><linearGradient id="j" x1="22.5" y1="11.5" x2="21.5" y2="14" gradientUnits="userSpaceOnUse"><stop stop-color="#52383E"/><stop offset="1" stop-color="#432A35"/></linearGradient><linearGradient id="l" x1="19" y1="21" x2="20.5" y2="20.5" gradientUnits="userSpaceOnUse"><stop stop-color="#664F62" stop-opacity="0"/><stop offset="1" stop-color="#765D72"/></linearGradient></defs></svg>
